X: 30435
T: Old Town
R: reel
M: 4/4
K: Dmajor
M:2/4
|:c/B/|Ad dA|c/d/e/f/ ga/g/|fd df|e/d/c/B/ A/G/F/G/|
Ad dA/d/|c/d/e/f/ g2|fd e/d/c/e/|1 d2 d:|2 d2-d||
|:f/g/|af/g/ af|g/f/e/f/ ge|fd df|e/d/c/d/ ef/g/|
af a/g/f/g/|g/f/e/f/ ga/g/|f/e/d Ac|1 d2- d:|2 d2 d||

